X:22
T:Benny Lake Breakdown
R:reel
C:Bruce Osborne - Nov. 2002
Z:abc by bosborne@kos.net
M:2/4
L:1/8
K:Gmaj
D/F/|GG/F/ G/A/B/c/|d/g/b/g/ dd/g/|ff/e/ d/A/F/A/|G/A/B/c/ dD/F/|\
GG/F/ G/A/B/c/|d/g/b/g/ dd/g/|ff/e/ d/A/F/A/|G/B/A/F/ G:|
|:B,/D/|GG/F/ G/D/B,/D/|G/F/G/B/ dd/g/|f/d/^c/A/ F/D/F/A/|G/F/G/e/ dB,/D/|\
GG/F/ G/D/B,/D/|G/F/G/B/ dd/g/|f/d/^c/A/ F/D/F/A/|G/B/A/F/ G:|
